X:1
T:Norsk Fædrelandssang
T:Norsk Fædrelandssang
T:(Synges af Dess Dur)
T:F. A. Reissiger
T:P. A. Jensen
C:F. A. Reissiger
Z:P. A. Jensen
%%score [ 1 2 3 4 ]
L:1/8
Q:1/4=92
M:4/4
K:C
V:1 treble-8 nm="T1"
V:2 treble-8 nm="T2"
V:3 bass nm="B1"
V:4 bass nm="B2"
V:1
!f!"^Con moto ed energia" e3/2 d/ | c3 c d c (3(Bc) A | G4 E2 z2 | z2 (3(EG) c e2 d2 | %4
w: 1.Hø- jest|løf- ter jeg nu Guld- * po-|ka- len|for _ mit Fæ- dre-|
 c2 z2 z2!mf! c3/2 c/ | !>!c3 B !>!c B !>!c B | !>!B4 A2 A3/2 A/ | %7
w: land, tøm- mer|den for Fjel- det og for|Da- len og den|
!<(! (B2 d2-!<)! dB)!>(! (cA)!>)! | G2 z2 z2!mf! E3/2 F/ | G3/2 d/ e3/2 d/ (c3/2d/4c/4 B) c | %10
w: hø- * * * je _|Strand: Fjel- det|med sin Malm, sin Pragt _ _ _ af|
 d4 G2!mf! B3/2 c/ |!<(! (d2 f4)!<)!!>(! (ed)!>)! | c2 z2 z2!f! e3/2 e/ | !>!f3 e d3/2 d/ e3/2 d/ | %14
w: Sko- ve og sit|Fug- * le- *|kor, Da- len,|svøbt i Guld og Blom- ster-|
 !>!g4 .c2 .c2 | !>!f3 e e3/2 d/ c A | (G2 c4 B2) | c4 z2 |] %18
w: flor, lunt bag|Stran- den ved den mør- ke|Vo- * *|ve!|
V:2
!f! c3/2 G/ | G3 G A A (3(^GA) F | E4 C2 (3(CE) G | c6 B2 | G2 z2 z2!mf! A3/2 A/ | %5
w: 1.Hø- jest|løf- ter jeg nu Guld- * po-|ka- len for _ mit|Fæ- dre-|land, tøm- mer|
 !>!A3 G !>!A G !>!A G | !>!G4 G2 G3/2 G/ |!<(! (G2 B2-!<)! BG)!>(! (A^F)!>)! | %8
w: den for Fjel- det og for|Da- len og den|hø- * * * je _|
 G2 z2 z2!mf! C3/2 D/ | E3/2 E/ G3/2 F/ (E2 G) G | G4 G2!mf! G3/2 G/ |!<(! (G2 c4)!<)!!>(! B2!>)! | %12
w: Strand: Fjel- det|med sin Malm, sin Pragt _ af|Sko- ve og sit|Fug- * le-|
 c2 z2 z2!f! c3/2 c/ | !>!c3 c c3/2 c/ B3/2 B/ | !>!c4 .c2 .c2 | !>!B3 c A3/2 A/ A A | (G4 F4) | %17
w: kor, Da- len,|svøbt i Guld og Blom- ster-|flor, lunt bag|Stran- den ved den mør- ke|Vo- *|
 E4 z2 |] %18
w: ve!|
V:3
!f! G,3/2 F,/ | E,3 E, F, F, (3:2:2F,2 A, | C4 G,2 z2 | z2 (3:2:2G,2 E, G,2 F,2 | %4
w: 1.Hø- jest|løf- ter jeg nu Guld- po-|ka- len|for mit Fæ- dre-|
 E,2 z2 z2!mf! E,3/2 E,/ | !>!D,3 D, !>!D, D, !>!D, D, | !>!E,4 E,2 E,3/2 E,/ | %7
w: land, tøm- mer|den for Fjel- det og for|Da- len og den|
!<(! D,6!<)!!>(! (D,C,)!>)! | B,,2 z2 z2!mf! C,3/2 C,/ | C,3/2 C,/ C,3/2 C,/ (C,2 F,) E, | %10
w: hø- je _|Strand: Fjel- det|med sin Malm, sin Pragt _ af|
 F,4 F,2!mf! F,3/2 E,/ |!<(! (F,2 A,4)!<)!!>(! (G,F,)!>)! | E,2!f! G,3/2 A,/ !>!_B,3 B, | %13
w: Sko- ve og sit|Fug- * le- *|kor, Da- len, svøbt i|
 !>!A,3 A, ^G,2 =G,2 | !>!G,4 .A,2 .G,2 | !>!G,3 G, F,3/2 D,/ _E, E, | (E,4 D,2 G,2) | G,4 z2 |] %18
w: Guld og Blom- ster-|flor, lunt bag|Stran- den ved den mør- ke|Vo- * *|ve!|
V:4
!f! C,3/2 C,/ | C,3 C, C, C, (3:2:2C,2 C, | C,4 C,2 z2 | z2 (3(G,E,) C, G,,2 G,,2 | %4
w: 1.Hø- jest|løf- ter jeg nu Guld- po-|ka- len|for _ mit Fæ- dre-|
 C,2!mf! C,3/2 C,/ C,2 A,,2 | ^F,,3 G,, (F,,G,,) (F,,G,,) | !>!C,4 C,2 ^C,3/2 C,/ | %7
w: land, tøm- mer den for|Fjel- det og _ for _|Da- len og den|
!<(! D,6!<)!!>(! D,2!>)! | G,,2!mf! G,3/2 G,/ G,2 G,2 | C2 (E,>F,) G,2 C,2 | %10
w: hø- je|Strand: Fjel- det med sin|Malm, sin _ Prakt af|
 C,4 B,,2!mf! G,,3/2 G,,/ |!<(! G,,6!<)!!>(! G,,2!>)! | %12
w: Sko- ve og sit|Fug- le-|
"_\n\n2.Hedenold har Sagn om sine Helte vidt fra Land og Sø;\nfik end Nuet ej dets Styrkebelte, skal ej Sagnet dø. \nDer er endnu mangen Strid at stande for en fyrig Slægt;\nAandens Sværdslag falde lige kjækt\npaa Barbarens og Filistrens Pande!\n\n\n\n3.Ros og Rigdom skal ej langvejs søges som et blodigt Rov;\nhjemme nu i Fredens Favn de øges under Friheds Lov.\nBjergets Huldreslægt til Bonden skatter, Dalen giver Guld,\nog det vrede Hav, sin Bejler huld,\nmildnes ved de muntre Blaamænds Latter.\n\n\n\n4.Jeg er stolt; jeg kan ej Pletter finde paa min Moders Dragt;\nhvor jeg færdes, staar hun for mit Minde i sin Skjoldmøpragt.\nDerfor løfter højest jeg Pokalen for mit Fædreland, \ntømmer den for Bølgen og for Strand,\nFos og Fjeld og hver en Blomst i Dalen!\n" C,2 z2 z2!f! G,3/2 G,/ | %13
w: kor, Da- len,|
 !>!F,3 F, F,3/2 F,/ F,3/2 F,/ | !>!E,4 .F,2 .E,2 | !>!D,3 C, F,,3/2 F,,/ ^F,, F,, | G,,8 | %17
w: svøbt i Guld og Blom- ster-|flor, lunt bag|Stran- den ved den mør- ke|Vo-|
 C,4 z2 |] %18
w: ve!|

